X: 21139
T: Kate And Davy
R: reel
M: 4/4
K: Gmajor
M:2/4
e|d/c/B/A/ B/G/E/E/|G/A/B/A/ G/A/B/c/|d/c/B/A/ B/G/E/E/|g/e/f/d/ e:|
|:e/f/|g/f/g/a/ g/b/a/g/|f>d f>d|g/f/g/a/ g/b/a/g/|f/g/a/f/ e:|

